X:1245
L:1/8
M:3/4
K:G
 D | G B D | G B d | c B A | G2 D | G B D | G B d | c B A | G2 G | A G A | B G G | F E c | B2 D | 
 G B e | d B G | c B A | G2 z |]

